icons/blog.svg

<svg width="24" height="24" viewBox="0 0 24 24" xmlns="http://www.w3.org/2000/svg">
    <path fill-rule="evenodd"
        d="M2 4C2 3.44772 2.44772 3 3 3H17C17.5523 3 18 3.44772 18 4V18C18 18.397 18.1223 18.6249 18.2497 18.7518C18.3777 18.8792 18.6067 19 19 19C19.3933 19 19.6223 18.8792 19.7503 18.7518C19.8777 18.6249 20 18.397 20 18V8H22V18C22 18.8306 21.7302 19.6027 21.1616 20.169C20.5936 20.7346 19.8226 21 19 21H18.6441H5.93333C3.73011 21 2 19.1258 2 17V4ZM14.2667 13H6V11H14.2667V13ZM6 9H14V7H6V9Z" />
</svg>

<svg xmlns="http://www.w3.org/2000/svg" width="24" height="24" viewBox="0 0 24 24">
    <path
        d="M2 4c0-.552.448-1 1-1h14c.552 0 1 .448 1 1v14c0 .397.122.625.25.752s.357.248.75.248.622-.12.75-.248c.128-.127.25-.355.25-.752V8h2v10c0 .83-.27 1.603-.838 2.169-.568.566-1.34.831-2.162.831H5.934C3.73 21 2 19.126 2 17V4zm12.267 9H6v-2h8.267v2zM6 9h8V7H6v2z" />
</svg>
